Lila_HD/status/scalable/battery-good-charging-symbolic.svg

<?xml version="1.0" encoding="UTF-8"?>
<!-- Created with Inkscape (http://www.inkscape.org/) -->
<svg version="1.1" viewBox="0 0 24 24" xmlns="http://www.w3.org/2000/svg" xmlns:cc="http://creativecommons.org/ns#" xmlns:dc="http://purl.org/dc/elements/1.1/" xmlns:rdf="http://www.w3.org/1999/02/22-rdf-syntax-ns#">
<metadata>
<rdf:RDF>
<cc:Work rdf:about="">
<dc:format>image/svg+xml</dc:format>
<dc:type rdf:resource="http://purl.org/dc/dcmitype/StillImage"/>
<dc:title/>
</cc:Work>
</rdf:RDF>
</metadata>
<g transform="translate(3316.4 -2092.7)">
<path transform="translate(-3316.4 2092.7)" d="m11 4c-0.554 0-1 0.446-1 1-1.6447 0-3 1.3553-3 3v9c0 1.6447 1.3553 3 3 3h4c1.6447 0 3-1.3553 3-3v-9c0-1.6447-1.3553-3-3-3 0-0.554-0.446-1-1-1h-2zm-1 3h4c0.5713 0 1 0.4287 1 1v3h-6v-3c0-0.5713 0.4287-1 1-1zm9 3v2h-1v1h1v2h1v-5h-1zm2 1v1h2v-1h-2zm-19 1v1h4v-1h-4zm19 1v1h2v-1h-2z" color="#000000" fill="#434a54" fill-opacity=".67577"/>
</g>
</svg>

<?xml version="1.0" encoding="UTF-8" standalone="no"?>
<!-- Created with Inkscape (http://www.inkscape.org/) -->

<svg
   xmlns:dc="http://purl.org/dc/elements/1.1/"
   xmlns:cc="http://creativecommons.org/ns#"
   xmlns:rdf="http://www.w3.org/1999/02/22-rdf-syntax-ns#"
   xmlns:svg="http://www.w3.org/2000/svg"
   xmlns="http://www.w3.org/2000/svg"
   xmlns:sodipodi="http://sodipodi.sourceforge.net/DTD/sodipodi-0.dtd"
   xmlns:inkscape="http://www.inkscape.org/namespaces/inkscape"
   width="24"
   height="24"
   id="svg27665"
   version="1.1"
   inkscape:version="0.48.4 r9939"
   sodipodi:docname="battery-060-charging.svg">
  <defs
     id="defs27667" />
  <sodipodi:namedview
     id="base"
     pagecolor="#cbcdd6"
     bordercolor="#666666"
     borderopacity="1.0"
     inkscape:pageopacity="1"
     inkscape:pageshadow="2"
     inkscape:zoom="32.000002"
     inkscape:cx="15.455036"
     inkscape:cy="11.465621"
     inkscape:document-units="px"
     inkscape:current-layer="layer1"
     showgrid="true"
     inkscape:window-width="1920"
     inkscape:window-height="1017"
     inkscape:window-x="-5"
     inkscape:window-y="26"
     inkscape:window-maximized="1"
     inkscape:snap-bbox="true"
     inkscape:bbox-paths="true"
     inkscape:bbox-nodes="true"
     inkscape:snap-bbox-edge-midpoints="true"
     inkscape:snap-bbox-midpoints="true"
     inkscape:object-paths="true"
     inkscape:snap-intersection-paths="true"
     inkscape:object-nodes="true"
     inkscape:snap-smooth-nodes="true"
     inkscape:snap-midpoints="true"
     inkscape:snap-object-midpoints="true"
     inkscape:snap-center="true"
     inkscape:snap-global="true"
     showguides="true"
     inkscape:guide-bbox="true"
     fit-margin-top="0"
     fit-margin-left="0"
     fit-margin-right="0"
     fit-margin-bottom="0"
     inkscape:showpageshadow="false">
    <inkscape:grid
       type="xygrid"
       id="grid3070"
       empspacing="5"
       visible="true"
       enabled="true"
       snapvisiblegridlinesonly="true"
       originx="-47.999653px"
       originy="-0.00031276823px" />
  </sodipodi:namedview>
  <metadata
     id="metadata27670">
    <rdf:RDF>
      <cc:Work
         rdf:about="">
        <dc:format>image/svg+xml</dc:format>
        <dc:type
           rdf:resource="http://purl.org/dc/dcmitype/StillImage" />
        <dc:title />
      </cc:Work>
    </rdf:RDF>
  </metadata>
  <g
     inkscape:label="Camada 1"
     inkscape:groupmode="layer"
     id="layer1"
     transform="translate(3316.4171,-2092.7186)">
    <path
       style="color:#000000;fill:#434a54;fill-opacity:0.67577096;fill-rule:nonzero;stroke:none;stroke-width:1.20000005;marker:none;visibility:visible;display:inline;overflow:visible;enable-background:accumulate"
       d="M 11 4 C 10.446 4 10 4.446 10 5 C 8.3553 5 7 6.3553 7 8 L 7 17 C 7 18.6447 8.3553 20 10 20 L 14 20 C 15.6447 20 17 18.6447 17 17 L 17 8 C 17 6.3553 15.6447 5 14 5 C 14 4.446 13.554 4 13 4 L 11 4 z M 10 7 L 14 7 C 14.5713 7 15 7.4287 15 8 L 15 11 L 9 11 L 9 8 C 9 7.4287 9.4287 7 10 7 z M 19 10 L 19 12 L 18 12 L 18 13 L 19 13 L 19 15 L 20 15 L 20 10 L 19 10 z M 21 11 L 21 12 L 23 12 L 23 11 L 21 11 z M 2 12 L 2 13 L 6 13 L 6 12 L 2 12 z M 21 13 L 21 14 L 23 14 L 23 13 L 21 13 z "
       transform="translate(-3316.4171,2092.7186)"
       id="path2997" />
  </g>
</svg>
